public/down.svg

<svg fill="none" height="6" viewBox="0 0 11 6" width="11" xmlns="http://www.w3.org/2000/svg"><path d="m.550255 1.15903c-.195262-.195258-.195262-.51184 0-.707102.195262-.195263.511845-.195263.707105 0l4.24264 4.242642 4.24264-4.242642c.19527-.195263.51186-.195262.70706 0 .1953.195262.1953.511844 0 .707102l-3.88904 3.88909c-.3497.34916-.53732.52787-.75164.59751-.20084.06525-.41719.06525-.61803 0-.21432-.06964-.40192-.24836-.75163-.59753z" fill="#2c3852" fill-opacity=".6"/></svg>

<svg width="11" height="6" viewBox="0 0 11 6" fill="none" xmlns="http://www.w3.org/2000/svg">
<path d="M0.550255 1.15903C0.354993 0.963772 0.354993 0.64719 0.550255 0.451928C0.745517 0.256665 1.0621 0.256665 1.25736 0.451928L5.5 4.69457L9.74264 0.451928C9.93791 0.256665 10.2545 0.256666 10.4497 0.451928C10.645 0.64719 10.645 0.963772 10.4497 1.15903L6.56066 5.04812C6.21096 5.39728 6.02334 5.57599 5.80902 5.64563C5.60818 5.71088 5.39183 5.71088 5.19099 5.64563C4.97667 5.57599 4.78907 5.39727 4.43936 5.0481L0.550255 1.15903Z" fill="#2C3852" fill-opacity="0.6"/>
</svg>
